X:102
T: ACH JOSEPH LIEBER JOSEPH
N: E0056D
O: Europa, Mitteleuropa, Deutschland, Unter - Taunus, Niederreifenberg
R: erzaehlendes Volks - Lied, Sage, Kinds - Mord
M: 3/4
L: 1/8
K: G
D2 | G2B2dB | BAA2
e2 | d2c2B2 | A4
AB | c2cedc | B2d2
BB | A2d2c2 | B4
AB | c2cedc | B2d2
BB | A2d2c2 | B4

@@@ Tune index: 3752
